X:13
T:Wäfva Wadmal
T:Polska ur Hugo Hägerströms notbok (SmM XI:13)
R:Polska
O:Växjö, Småland
S:Hugo Hägerström
B:Småländsk Musiktradition
N:M136
N:1859. Variant av Väva Vadmal.
M:3/4
L:1/8
K:A
A>A d2 d2|c>B cd cB|{/c}A>G A2 B2|c2 A2 z2:|
|:B2 E>F G>E|A>G A>B c>A|B>B E>F G>E A2 A2 z2:|

